!! 00000] TT[00
!! NN
!!!OTL: Xiu hebao
!!!ARE: Asia, Ostasien, China
!! Ethnic Group: Han
!! Xiaodiao - Artikel, Essen 1991
!!!SCT: C0000
!!!YEM: Copyright 1995, estate of Helmut Schaffrath.
**kern
*ICvox
*Ivox
*M2/4
*k[f#c#]
*D:
{8dd
8dd
16ccn
16dd
16ee
16gg
=1
4dd
8ccn
8a
=2
8gg
16ee
16dd
8dd
8a
=3
8.g
16f#
4g}
=4
{8a
4dd
8gg
=5
4dd
8.a
16g
=6
8a
8ccn
8a
16g
16e
=7
2d}
==
!!!AGN: Xiaodiao
!! 
!!!ONB: ESAC (Essen Associative Code) Database: CHINAx
!!!AMT: simple duple
!!!AIN: vox
!!!EED: Helmut Schaffrath
!!!EEV: 1.0
*-
